X: 9031
T: Da Bush Below Da Gairden
R: reel
M: 4/4
K: Dmajor
d2 fd fafd|d2 fd e3 f|d2 fd fafd|gfef d3 z:|
edBA BE E/E/E|edBA B2 B2|edBA Bcde|faef d2 d2:|

